frontend/src/assets/icons/plus-circle-black.svg

<svg xmlns="http://www.w3.org/2000/svg" xmlns:xlink="http://www.w3.org/1999/xlink" viewBox="0,0,256,256" width="96px" height="96px" fill-rule="nonzero"><g transform="translate(53.33333,53.33333) scale(0.58333,0.58333)"><g fill="#ffffff" fill-rule="nonzero" stroke="none" stroke-width="1" stroke-linecap="butt" stroke-linejoin="miter" stroke-miterlimit="10" stroke-dasharray="" stroke-dashoffset="0" font-family="none" font-weight="none" font-size="none" text-anchor="none" style="mix-blend-mode: normal"><path d="M-91.42857,347.42857v-438.85714h438.85714v438.85714z" id="bgRectangle"></path></g><g fill="#000000" fill-rule="nonzero" stroke="none" stroke-width="1" stroke-linecap="butt" stroke-linejoin="miter" stroke-miterlimit="10" stroke-dasharray="" stroke-dashoffset="0" font-family="none" font-weight="none" font-size="none" text-anchor="none" style="mix-blend-mode: normal"><g transform="translate(106.66667,0) scale(10.66667,10.66667)"><path d="M12,2c-5.511,0 -10,4.489 -10,10c0,5.511 4.489,10 10,10c5.511,0 10,-4.489 10,-10c0,-5.511 -4.489,-10 -10,-10zM12,4c4.43012,0 8,3.56988 8,8c0,4.43012 -3.56988,8 -8,8c-4.43012,0 -8,-3.56988 -8,-8c0,-4.43012 3.56988,-8 8,-8zM11,7v4h-4v2h4v4h2v-4h4v-2h-4v-4z"></path></g></g></g></svg>

<svg xmlns="http://www.w3.org/2000/svg" width="96" height="96" viewBox="0 0 256 256"><g stroke-miterlimit="10" font-family="none" font-size="none" font-weight="none" text-anchor="none"><path fill="#fff" d="M-91.429 347.429V-91.43H347.43V347.43z" style="mix-blend-mode:normal" transform="translate(53.333 53.333) scale(.58333)"/><path d="M12 2C6.489 2 2 6.489 2 12s4.489 10 10 10 10-4.489 10-10S17.511 2 12 2zm0 2c4.43 0 8 3.57 8 8s-3.57 8-8 8-8-3.57-8-8 3.57-8 8-8zm-1 3v4H7v2h4v4h2v-4h4v-2h-4V7z" style="mix-blend-mode:normal" transform="matrix(6.22219 0 0 6.22219 115.555 53.333)"/></g></svg>
